bernoullicharts/cos_x__bound.svg

<?xml version="1.0" encoding="utf-8" standalone="no"?>
<!DOCTYPE svg PUBLIC "-//W3C//DTD SVG 1.1//EN"
  "http://www.w3.org/Graphics/SVG/1.1/DTD/svg11.dtd">
<!-- Created with matplotlib (https://matplotlib.org/) -->
<svg height="345.6pt" version="1.1" viewBox="0 0 460.8 345.6" width="460.8pt" xmlns="http://www.w3.org/2000/svg" xmlns:xlink="http://www.w3.org/1999/xlink">
 <defs>
  <style type="text/css">
*{stroke-linecap:butt;stroke-linejoin:round;}
  </style>
 </defs>
 <g id="figure_1">
  <g id="patch_1">
   <path d="M 0 345.6 
L 460.8 345.6 
L 460.8 0 
L 0 0 
z
" style="fill:#ffffff;"/>
  </g>
  <g id="axes_1">
   <g id="patch_2">
    <path d="M 57.6 307.584 
L 414.72 307.584 
L 414.72 41.472 
L 57.6 41.472 
z
" style="fill:#ffffff;"/>
   </g>
   <g id="matplotlib.axis_1">
    <g id="xtick_1">
     <g id="line2d_1">
      <defs>
       <path d="M 0 0 
L 0 3.5 
" id="m34d5f28535" style="stroke:#000000;stroke-width:0.8;"/>
      </defs>
      <g>
       <use style="stroke:#000000;stroke-width:0.8;" x="73.800255" xlink:href="#m34d5f28535" y="307.584"/>
      </g>
     </g>
     <g id="text_1">
      <text style="font-family:DejaVu Sans;font-size:10px;font-style:normal;font-weight:normal;text-anchor:middle;" transform="rotate(-0, 73.800255, 322.182437)" x="73.800255" y="322.182437">0.0</text>
     </g>
    </g>
    <g id="xtick_2">
     <g id="line2d_2">
      <g>
       <use style="stroke:#000000;stroke-width:0.8;" x="138.744153" xlink:href="#m34d5f28535" y="307.584"/>
      </g>
     </g>
     <g id="text_2">
      <text style="font-family:DejaVu Sans;font-size:10px;font-style:normal;font-weight:normal;text-anchor:middle;" transform="rotate(-0, 138.744153, 322.182437)" x="138.744153" y="322.182437">0.2</text>
     </g>
    </g>
    <g id="xtick_3">
     <g id="line2d_3">
      <g>
       <use style="stroke:#000000;stroke-width:0.8;" x="203.688051" xlink:href="#m34d5f28535" y="307.584"/>
      </g>
     </g>
     <g id="text_3">
      <text style="font-family:DejaVu Sans;font-size:10px;font-style:normal;font-weight:normal;text-anchor:middle;" transform="rotate(-0, 203.688051, 322.182437)" x="203.688051" y="322.182437">0.4</text>
     </g>
    </g>
    <g id="xtick_4">
     <g id="line2d_4">
      <g>
       <use style="stroke:#000000;stroke-width:0.8;" x="268.631949" xlink:href="#m34d5f28535" y="307.584"/>
      </g>
     </g>
     <g id="text_4">
      <text style="font-family:DejaVu Sans;font-size:10px;font-style:normal;font-weight:normal;text-anchor:middle;" transform="rotate(-0, 268.631949, 322.182437)" x="268.631949" y="322.182437">0.6</text>
     </g>
    </g>
    <g id="xtick_5">
     <g id="line2d_5">
      <g>
       <use style="stroke:#000000;stroke-width:0.8;" x="333.575847" xlink:href="#m34d5f28535" y="307.584"/>
      </g>
     </g>
     <g id="text_5">
      <text style="font-family:DejaVu Sans;font-size:10px;font-style:normal;font-weight:normal;text-anchor:middle;" transform="rotate(-0, 333.575847, 322.182437)" x="333.575847" y="322.182437">0.8</text>
     </g>
    </g>
    <g id="xtick_6">
     <g id="line2d_6">
      <g>
       <use style="stroke:#000000;stroke-width:0.8;" x="398.519745" xlink:href="#m34d5f28535" y="307.584"/>
      </g>
     </g>
     <g id="text_6">
      <text style="font-family:DejaVu Sans;font-size:10px;font-style:normal;font-weight:normal;text-anchor:middle;" transform="rotate(-0, 398.519745, 322.182437)" x="398.519745" y="322.182437">1.0</text>
     </g>
    </g>
    <g id="text_7">
     <text style="font-family:DejaVu Sans;font-size:10px;font-style:normal;font-weight:normal;text-anchor:middle;" transform="rotate(-0, 236.16, 335.860562)" x="236.16" y="335.860562">Input Coin's Heads Probability (λ)</text>
    </g>
   </g>
   <g id="matplotlib.axis_2">
    <g id="ytick_1">
     <g id="line2d_7">
      <defs>
       <path d="M 0 0 
L -3.5 0 
" id="m8adc3e54d7" style="stroke:#000000;stroke-width:0.8;"/>
      </defs>
      <g>
       <use style="stroke:#000000;stroke-width:0.8;" x="57.6" xlink:href="#m8adc3e54d7" y="295.503186"/>
      </g>
     </g>
     <g id="text_8">
      <text style="font-family:DejaVu Sans;font-size:10px;font-style:normal;font-weight:normal;text-anchor:end;" transform="rotate(-0, 50.6, 299.302405)" x="50.6" y="299.302405">0.0</text>
     </g>
    </g>
    <g id="ytick_2">
     <g id="line2d_8">
      <g>
       <use style="stroke:#000000;stroke-width:0.8;" x="57.6" xlink:href="#m8adc3e54d7" y="257.534701"/>
      </g>
     </g>
     <g id="text_9">
      <text style="font-family:DejaVu Sans;font-size:10px;font-style:normal;font-weight:normal;text-anchor:end;" transform="rotate(-0, 50.6, 261.33392)" x="50.6" y="261.33392">0.5</text>
     </g>
    </g>
    <g id="ytick_3">
     <g id="line2d_9">
      <g>
       <use style="stroke:#000000;stroke-width:0.8;" x="57.6" xlink:href="#m8adc3e54d7" y="219.566216"/>
      </g>
     </g>
     <g id="text_10">
      <text style="font-family:DejaVu Sans;font-size:10px;font-style:normal;font-weight:normal;text-anchor:end;" transform="rotate(-0, 50.6, 223.365435)" x="50.6" y="223.365435">1.0</text>
     </g>
    </g>
    <g id="ytick_4">
     <g id="line2d_10">
      <g>
       <use style="stroke:#000000;stroke-width:0.8;" x="57.6" xlink:href="#m8adc3e54d7" y="181.597731"/>
      </g>
     </g>
     <g id="text_11">
      <text style="font-family:DejaVu Sans;font-size:10px;font-style:normal;font-weight:normal;text-anchor:end;" transform="rotate(-0, 50.6, 185.39695)" x="50.6" y="185.39695">1.5</text>
     </g>
    </g>
    <g id="ytick_5">
     <g id="line2d_11">
      <g>
       <use style="stroke:#000000;stroke-width:0.8;" x="57.6" xlink:href="#m8adc3e54d7" y="143.629246"/>
      </g>
     </g>
     <g id="text_12">
      <text style="font-family:DejaVu Sans;font-size:10px;font-style:normal;font-weight:normal;text-anchor:end;" transform="rotate(-0, 50.6, 147.428465)" x="50.6" y="147.428465">2.0</text>
     </g>
    </g>
    <g id="ytick_6">
     <g id="line2d_12">
      <g>
       <use style="stroke:#000000;stroke-width:0.8;" x="57.6" xlink:href="#m8adc3e54d7" y="105.660761"/>
      </g>
     </g>
     <g id="text_13">
      <text style="font-family:DejaVu Sans;font-size:10px;font-style:normal;font-weight:normal;text-anchor:end;" transform="rotate(-0, 50.6, 109.45998)" x="50.6" y="109.45998">2.5</text>
     </g>
    </g>
    <g id="ytick_7">
     <g id="line2d_13">
      <g>
       <use style="stroke:#000000;stroke-width:0.8;" x="57.6" xlink:href="#m8adc3e54d7" y="67.692276"/>
      </g>
     </g>
     <g id="text_14">
      <text style="font-family:DejaVu Sans;font-size:10px;font-style:normal;font-weight:normal;text-anchor:end;" transform="rotate(-0, 50.6, 71.491495)" x="50.6" y="71.491495">3.0</text>
     </g>
    </g>
    <g id="text_15">
     <text style="font-family:DejaVu Sans;font-size:10px;font-style:normal;font-weight:normal;text-anchor:middle;" transform="rotate(-90, 28.617187, 174.528)" x="28.617187" y="174.528">Coin Flips Needed</text>
    </g>
   </g>
   <g id="line2d_14">
    <path clip-path="url(#pe0aca0d702)" d="M 73.832727 295.488 
L 77.112066 293.969983 
L 80.391405 292.482714 
L 83.670744 291.025972 
L 86.950083 289.599545 
L 90.229421 288.203232 
L 93.50876 286.836838 
L 96.788099 285.500179 
L 100.067438 284.193077 
L 103.346777 282.915364 
L 106.626116 281.666881 
L 109.905455 280.447475 
L 113.184793 279.257002 
L 116.464132 278.095327 
L 119.743471 276.962322 
L 123.02281 275.857866 
L 126.302149 274.781847 
L 129.581488 273.73416 
L 132.860826 272.714708 
L 136.140165 271.723402 
L 139.419504 270.76016 
L 142.698843 269.824907 
L 145.978182 268.917578 
L 149.257521 268.038112 
L 152.53686 267.186459 
L 155.816198 266.362575 
L 159.095537 265.566424 
L 162.374876 264.797979 
L 165.654215 264.057218 
L 168.933554 263.344129 
L 172.212893 262.658708 
L 175.492231 262.000958 
L 178.77157 261.370892 
L 182.050909 260.768529 
L 185.330248 260.193899 
L 188.609587 259.647038 
L 191.888926 259.127993 
L 195.168264 258.636819 
L 198.447603 258.173579 
L 201.726942 257.738348 
L 205.006281 257.331208 
L 208.28562 256.952253 
L 211.564959 256.601585 
L 214.844298 256.279319 
L 218.123636 255.985577 
L 221.402975 255.720497 
L 224.682314 255.484223 
L 227.961653 255.276914 
L 231.240992 255.098741 
L 234.520331 254.949886 
L 237.799669 254.830547 
L 241.079008 254.740932 
L 244.358347 254.681264 
L 247.637686 254.651782 
L 250.917025 254.65274 
L 254.196364 254.684407 
L 257.475702 254.747067 
L 260.755041 254.841024 
L 264.03438 254.966599 
L 267.313719 255.124131 
L 270.593058 255.31398 
L 273.872397 255.536524 
L 277.151736 255.792167 
L 280.431074 256.08133 
L 283.710413 256.404463 
L 286.989752 256.762038 
L 290.269091 257.154554 
L 293.54843 257.582538 
L 296.827769 258.046545 
L 300.107107 258.547162 
L 303.386446 259.085008 
L 306.665785 259.660737 
L 309.945124 260.275037 
L 313.224463 260.928638 
L 316.503802 261.622307 
L 319.78314 262.356856 
L 323.062479 263.133143 
L 326.341818 263.952073 
L 329.621157 264.814604 
L 332.900496 265.721748 
L 336.179835 266.674577 
L 339.459174 267.674224 
L 342.738512 268.721887 
L 346.017851 269.818839 
L 349.29719 270.966425 
L 352.576529 272.166073 
L 355.855868 273.419299 
L 359.135207 274.72771 
L 362.414545 276.093014 
L 365.693884 277.517028 
L 368.973223 279.001683 
L 372.252562 280.549035 
L 375.531901 282.161276 
L 378.81124 283.84074 
L 382.090579 285.58992 
L 385.369917 287.41148 
L 388.649256 289.308266 
L 391.928595 291.283323 
L 395.207934 293.339915 
L 398.487273 295.481542 
" style="fill:none;stroke:#1f77b4;stroke-linecap:square;stroke-width:1.5;"/>
   </g>
   <g id="line2d_15">
    <path clip-path="url(#pe0aca0d702)" d="M 73.832727 219.566216 
L 77.112066 219.110594 
L 80.391405 217.743729 
L 83.670744 216.224989 
L 86.950083 215.921241 
L 90.229421 216.073115 
L 93.50876 215.46562 
L 96.788099 213.643132 
L 100.067438 213.643132 
L 103.346777 211.213149 
L 106.626116 210.605654 
L 109.905455 209.998158 
L 113.184793 209.390662 
L 116.464132 208.93504 
L 119.743471 208.783166 
L 123.02281 205.897561 
L 126.302149 208.023797 
L 129.581488 204.530696 
L 132.860826 203.619452 
L 136.140165 204.075074 
L 139.419504 201.796965 
L 142.698843 201.189469 
L 145.978182 200.733848 
L 149.257521 199.518856 
L 152.53686 196.785125 
L 155.816198 194.810764 
L 159.095537 196.633251 
L 162.374876 195.114512 
L 165.654215 197.240747 
L 168.933554 192.988277 
L 172.212893 191.013915 
L 175.492231 188.432058 
L 178.77157 189.950798 
L 182.050909 183.420218 
L 185.330248 185.850201 
L 188.609587 186.305823 
L 191.888926 186.913319 
L 195.168264 188.280184 
L 198.447603 186.609571 
L 201.726942 185.090832 
L 205.006281 177.800883 
L 208.28562 175.3709 
L 211.564959 182.357101 
L 214.844298 175.674647 
L 218.123636 171.725925 
L 221.402975 172.485295 
L 224.682314 169.751564 
L 227.961653 174.004034 
L 231.240992 168.992194 
L 234.520331 169.295942 
L 237.799669 163.220984 
L 241.079008 164.891598 
L 244.358347 161.854119 
L 247.637686 166.106589 
L 250.917025 159.424136 
L 254.196364 156.386657 
L 257.475702 157.297901 
L 260.755041 161.398497 
L 264.03438 153.501052 
L 267.313719 152.741683 
L 270.593058 148.641086 
L 273.872397 148.337338 
L 277.151736 141.503011 
L 280.431074 145.603607 
L 283.710413 144.084868 
L 286.989752 141.958633 
L 290.269091 143.932994 
L 293.54843 138.465532 
L 296.827769 133.453692 
L 300.107107 130.568087 
L 303.386446 125.2525 
L 306.665785 130.26434 
L 309.945124 125.404373 
L 313.224463 128.138104 
L 316.503802 121.151903 
L 319.78314 124.645004 
L 323.062479 115.684441 
L 326.341818 118.114424 
L 329.621157 106.420131 
L 332.900496 103.838274 
L 336.179835 115.22882 
L 339.459174 110.216979 
L 342.738512 108.242618 
L 346.017851 105.205139 
L 349.29719 106.268257 
L 352.576529 99.889552 
L 355.855868 94.573964 
L 359.135207 91.840233 
L 362.414545 86.676519 
L 365.693884 93.66272 
L 368.973223 85.765275 
L 372.252562 79.082822 
L 375.531901 75.893469 
L 378.81124 73.007864 
L 382.090579 79.38657 
L 385.369917 79.38657 
L 388.649256 64.958545 
L 391.928595 64.806672 
L 395.207934 53.568 
L 398.487273 63.136058 
" style="fill:none;stroke:#ff7f0e;stroke-linecap:square;stroke-width:1.5;"/>
   </g>
   <g id="patch_3">
    <path d="M 57.6 307.584 
L 57.6 41.472 
" style="fill:none;stroke:#000000;stroke-linecap:square;stroke-linejoin:miter;stroke-width:0.8;"/>
   </g>
   <g id="patch_4">
    <path d="M 414.72 307.584 
L 414.72 41.472 
" style="fill:none;stroke:#000000;stroke-linecap:square;stroke-linejoin:miter;stroke-width:0.8;"/>
   </g>
   <g id="patch_5">
    <path d="M 57.6 307.584 
L 414.72 307.584 
" style="fill:none;stroke:#000000;stroke-linecap:square;stroke-linejoin:miter;stroke-width:0.8;"/>
   </g>
   <g id="patch_6">
    <path d="M 57.6 41.472 
L 414.72 41.472 
" style="fill:none;stroke:#000000;stroke-linecap:square;stroke-linejoin:miter;stroke-width:0.8;"/>
   </g>
   <g id="text_16">
    <text style="font-family:DejaVu Sans;font-size:12px;font-style:normal;font-weight:normal;text-anchor:middle;" transform="rotate(-0, 236.16, 35.472)" x="236.16" y="35.472">Coin Flips for cos(x)</text>
   </g>
   <g id="legend_1">
    <g id="patch_7">
     <path d="M 64.6 78.82825 
L 252.535938 78.82825 
Q 254.535938 78.82825 254.535938 76.82825 
L 254.535938 48.472 
Q 254.535938 46.472 252.535938 46.472 
L 64.6 46.472 
Q 62.6 46.472 62.6 48.472 
L 62.6 76.82825 
Q 62.6 78.82825 64.6 78.82825 
z
" style="fill:#ffffff;opacity:0.8;stroke:#cccccc;stroke-linejoin:miter;"/>
    </g>
    <g id="line2d_16">
     <path d="M 66.6 54.570437 
L 86.6 54.570437 
" style="fill:none;stroke:#1f77b4;stroke-linecap:square;stroke-width:1.5;"/>
    </g>
    <g id="line2d_17"/>
    <g id="text_17">
     <text style="font-family:DejaVu Sans;font-size:10px;font-style:normal;font-weight:normal;text-anchor:start;" transform="rotate(-0, 94.6, 58.070437)" x="94.6" y="58.070437">Coin Flip Lower Bound (Mendo)</text>
    </g>
    <g id="line2d_18">
     <path d="M 66.6 69.248562 
L 86.6 69.248562 
" style="fill:none;stroke:#ff7f0e;stroke-linecap:square;stroke-width:1.5;"/>
    </g>
    <g id="line2d_19"/>
    <g id="text_18">
     <text style="font-family:DejaVu Sans;font-size:10px;font-style:normal;font-weight:normal;text-anchor:start;" transform="rotate(-0, 94.6, 72.748562)" x="94.6" y="72.748562">Avg. Coins Flipped cos(x)</text>
    </g>
   </g>
  </g>
 </g>
 <defs>
  <clipPath id="pe0aca0d702">
   <rect height="266.112" width="357.12" x="57.6" y="41.472"/>
  </clipPath>
 </defs>
</svg>

<svg height="460.8" viewBox="0 0 460.8 345.6" width="614.4" xmlns="http://www.w3.org/2000/svg" xmlns:xlink="http://www.w3.org/1999/xlink"><defs><style>*{stroke-linecap:butt;stroke-linejoin:round}</style></defs><g id="figure_1"><path d="M0 345.6h460.8V0H0z" fill="#fff" id="patch_1"/><g id="axes_1"><path d="M57.6 307.584h357.12V41.472H57.6z" fill="#fff" id="patch_2"/><g id="matplotlib.axis_1"><g id="xtick_1"><g id="line2d_1"><defs><path d="M0 0v3.5" id="m34d5f28535" stroke="#000" stroke-width=".8"/></defs><use x="73.8" xlink:href="#m34d5f28535" y="307.584" stroke="#000" stroke-width=".8"/></g><text x="73.8" y="322.182" font-family="DejaVu Sans" font-size="10" font-weight="400" text-anchor="middle" id="text_1">0.0</text></g><g id="xtick_2"><use x="138.744" xlink:href="#m34d5f28535" y="307.584" stroke="#000" stroke-width=".8" id="line2d_2"/><text x="138.744" y="322.182" font-family="DejaVu Sans" font-size="10" font-weight="400" text-anchor="middle" id="text_2">0.2</text></g><g id="xtick_3"><use x="203.688" xlink:href="#m34d5f28535" y="307.584" stroke="#000" stroke-width=".8" id="line2d_3"/><text x="203.688" y="322.182" font-family="DejaVu Sans" font-size="10" font-weight="400" text-anchor="middle" id="text_3">0.4</text></g><g id="xtick_4"><use x="268.632" xlink:href="#m34d5f28535" y="307.584" stroke="#000" stroke-width=".8" id="line2d_4"/><text x="268.632" y="322.182" font-family="DejaVu Sans" font-size="10" font-weight="400" text-anchor="middle" id="text_4">0.6</text></g><g id="xtick_5"><use x="333.576" xlink:href="#m34d5f28535" y="307.584" stroke="#000" stroke-width=".8" id="line2d_5"/><text x="333.576" y="322.182" font-family="DejaVu Sans" font-size="10" font-weight="400" text-anchor="middle" id="text_5">0.8</text></g><g id="xtick_6"><use x="398.52" xlink:href="#m34d5f28535" y="307.584" stroke="#000" stroke-width=".8" id="line2d_6"/><text x="398.52" y="322.182" font-family="DejaVu Sans" font-size="10" font-weight="400" text-anchor="middle" id="text_6">1.0</text></g><text x="236.16" y="335.861" font-family="DejaVu Sans" font-size="10" font-weight="400" text-anchor="middle" id="text_7">Input Coin&apos;s Heads Probability (λ)</text></g><g id="matplotlib.axis_2"><g id="ytick_1"><g id="line2d_7"><defs><path d="M0 0h-3.5" id="m8adc3e54d7" stroke="#000" stroke-width=".8"/></defs><use x="57.6" xlink:href="#m8adc3e54d7" y="295.503" stroke="#000" stroke-width=".8"/></g><text x="50.6" y="299.302" font-family="DejaVu Sans" font-size="10" font-weight="400" text-anchor="end" id="text_8">0.0</text></g><g id="ytick_2"><use x="57.6" xlink:href="#m8adc3e54d7" y="257.535" stroke="#000" stroke-width=".8" id="line2d_8"/><text x="50.6" y="261.334" font-family="DejaVu Sans" font-size="10" font-weight="400" text-anchor="end" id="text_9">0.5</text></g><g id="ytick_3"><use x="57.6" xlink:href="#m8adc3e54d7" y="219.566" stroke="#000" stroke-width=".8" id="line2d_9"/><text x="50.6" y="223.365" font-family="DejaVu Sans" font-size="10" font-weight="400" text-anchor="end" id="text_10">1.0</text></g><g id="ytick_4"><use x="57.6" xlink:href="#m8adc3e54d7" y="181.598" stroke="#000" stroke-width=".8" id="line2d_10"/><text x="50.6" y="185.397" font-family="DejaVu Sans" font-size="10" font-weight="400" text-anchor="end" id="text_11">1.5</text></g><g id="ytick_5"><use x="57.6" xlink:href="#m8adc3e54d7" y="143.629" stroke="#000" stroke-width=".8" id="line2d_11"/><text x="50.6" y="147.428" font-family="DejaVu Sans" font-size="10" font-weight="400" text-anchor="end" id="text_12">2.0</text></g><g id="ytick_6"><use x="57.6" xlink:href="#m8adc3e54d7" y="105.661" stroke="#000" stroke-width=".8" id="line2d_12"/><text x="50.6" y="109.46" font-family="DejaVu Sans" font-size="10" font-weight="400" text-anchor="end" id="text_13">2.5</text></g><g id="ytick_7"><use x="57.6" xlink:href="#m8adc3e54d7" y="67.692" stroke="#000" stroke-width=".8" id="line2d_13"/><text x="50.6" y="71.491" font-family="DejaVu Sans" font-size="10" font-weight="400" text-anchor="end" id="text_14">3.0</text></g><text transform="rotate(-90 28.617 174.528)" x="28.617" y="174.528" font-family="DejaVu Sans" font-size="10" font-weight="400" text-anchor="middle" id="text_15">Coin Flips Needed</text></g><path clip-path="url(#pe0aca0d702)" d="M73.833 295.488l3.28-1.518 3.278-1.487 3.28-1.457 3.28-1.426 3.278-1.397 3.28-1.366 3.28-1.337 3.278-1.307 3.28-1.278 3.28-1.248 3.278-1.22 3.28-1.19 3.28-1.162 3.278-1.133 3.28-1.104 3.28-1.076 3.278-1.048 3.28-1.02 3.28-.99 3.279-.964 3.279-.935 3.28-.907 3.279-.88 3.279-.852 3.28-.823 3.279-.797 3.279-.768 3.28-.74 3.279-.714 3.279-.685 3.28-.658 3.279-.63 3.279-.602 3.28-.575 3.279-.547 3.279-.519 3.28-.491 3.279-.463 3.279-.436 3.28-.407 3.279-.379 3.279-.35 3.28-.323 3.279-.293 3.279-.266 3.28-.236 3.279-.207 3.279-.178 3.28-.15 3.279-.118 3.279-.09 3.28-.06 3.279-.03 3.279.002 3.28.031 3.279.063 3.279.094 3.28.126 3.279.157 3.28.19 3.278.223 3.28.255 3.28.29 3.278.322 3.28.358 3.28.393 3.278.428 3.28.464 3.28.5 3.278.538 3.28.576 3.28.614 3.278.654 3.28.693 3.28.735 3.278.776 3.28.82 3.28.862 3.278.907 3.28.953 3.28 1 3.279 1.047 3.279 1.097 3.28 1.147 3.279 1.2 3.279 1.253 3.28 1.309 3.279 1.365 3.279 1.424 3.28 1.485 3.279 1.547 3.279 1.612 3.28 1.68 3.279 1.749 3.279 1.821 3.28 1.897 3.279 1.975 3.279 2.057 3.28 2.142" fill="none" stroke="#1f77b4" stroke-linecap="square" stroke-width="1.5" id="line2d_14"/><path clip-path="url(#pe0aca0d702)" d="M73.833 219.566l3.28-.455 3.278-1.367 3.28-1.519 3.28-.304 3.278.152 3.28-.607 3.28-1.823h3.278l3.28-2.43 3.28-.607 3.278-.608 3.28-.607 3.28-.456 3.278-.152 3.28-2.885 3.28 2.126 3.278-3.493 3.28-.912 3.28.456 3.279-2.278 3.279-.608 3.28-.455 3.279-1.215 3.279-2.734 3.28-1.974 3.279 1.822 3.279-1.518 3.28 2.126 3.279-4.253 3.279-1.974 3.28-2.582 3.279 1.519 3.279-6.53 3.28 2.43 3.279.455 3.279.607 3.28 1.367 3.279-1.67 3.279-1.52 3.28-7.29 3.279-2.43 3.279 6.987 3.28-6.682 3.279-3.95 3.279.76 3.28-2.733 3.279 4.252 3.279-5.012 3.28.304 3.279-6.075 3.279 1.67 3.28-3.037 3.279 4.253 3.279-6.683 3.28-3.037 3.279.91 3.279 4.101 3.28-7.897 3.279-.76 3.28-4.1 3.278-.304 3.28-6.834 3.28 4.1 3.278-1.518 3.28-2.126 3.28 1.974 3.278-5.467 3.28-5.012 3.28-2.886 3.278-5.316 3.28 5.012 3.28-4.86 3.278 2.734 3.28-6.986 3.28 3.493 3.278-8.96 3.28 2.43 3.28-11.695 3.278-2.582 3.28 11.39 3.28-5.011 3.279-1.974 3.279-3.038 3.28 1.063 3.279-6.378 3.279-5.316 3.28-2.734 3.279-5.163 3.279 6.986 3.28-7.898 3.279-6.682 3.279-3.19 3.28-2.885 3.279 6.379h3.279l3.28-14.428 3.279-.152 3.279-11.239 3.28 9.568" fill="none" stroke="#ff7f0e" stroke-linecap="square" stroke-width="1.5" id="line2d_15"/><path d="M57.6 307.584V41.472" fill="none" stroke="#000" stroke-linecap="square" stroke-width=".8" id="patch_3"/><path d="M414.72 307.584V41.472" fill="none" stroke="#000" stroke-linecap="square" stroke-width=".8" id="patch_4"/><path d="M57.6 307.584h357.12" fill="none" stroke="#000" stroke-linecap="square" stroke-width=".8" id="patch_5"/><path d="M57.6 41.472h357.12" fill="none" stroke="#000" stroke-linecap="square" stroke-width=".8" id="patch_6"/><text x="236.16" y="35.472" font-family="DejaVu Sans" font-size="12" font-weight="400" text-anchor="middle" id="text_16">Coin Flips for cos(x)</text><g id="legend_1"><path d="M64.6 78.828h187.936q2 0 2-2V48.472q0-2-2-2H64.6q-2 0-2 2v28.356q0 2 2 2z" fill="#fff" opacity=".8" stroke="#ccc" id="patch_7"/><path d="M66.6 54.57h20" fill="none" stroke="#1f77b4" stroke-linecap="square" stroke-width="1.5" id="line2d_16"/><text x="94.6" y="58.07" font-family="DejaVu Sans" font-size="10" font-weight="400" id="text_17">Coin Flip Lower Bound (Mendo)</text><path d="M66.6 69.249h20" fill="none" stroke="#ff7f0e" stroke-linecap="square" stroke-width="1.5" id="line2d_18"/><text x="94.6" y="72.749" font-family="DejaVu Sans" font-size="10" font-weight="400" id="text_18">Avg. Coins Flipped cos(x)</text></g></g></g><defs><clipPath id="pe0aca0d702"><path d="M57.6 41.472h357.12v266.112H57.6z"/></clipPath></defs></svg>
